static/images/main4.svg

<svg height="120" viewBox="0 0 112 120" width="112" xmlns="http://www.w3.org/2000/svg" xmlns:xlink="http://www.w3.org/1999/xlink"><linearGradient id="a" x1="0%" x2="149.460671%" y1="0%" y2="71.875%"><stop offset="0" stop-color="#00eaf8"/><stop offset="1" stop-color="#6d42ef"/></linearGradient><g fill="url(#a)" fill-rule="evenodd"><path d="m71.5191245 63.9158105-30.1741554-52.2631703c-2.1860131 1.1785255-4.6873838 1.8473598-7.3449691 1.8473598-8.5604136 0-15.5-6.93958638-15.5-15.5 0-8.5604136 6.9395864-15.5 15.5-15.5s15.5 6.9395864 15.5 15.5c0 4.45712942-1.8812849 8.47486121-4.8931109 11.30245145l30.8349268 53.40765995c.8321932-.1382042 1.6867912-.2101114 2.5581841-.2101114 8.5604136 0 15.5 6.9395864 15.5 15.5s-6.9395864 15.5-15.5 15.5-15.5-6.9395864-15.5-15.5c0-6.2467146 3.6952806-11.6303503 9.0191245-14.0841895zm-37.5191245-53.4158105c6.9035594 0 12.5-5.59644063 12.5-12.5s-5.5964406-12.5-12.5-12.5-12.5 5.59644063-12.5 12.5 5.5964406 12.5 12.5 12.5zm44 80c6.9035594 0 12.5-5.5964406 12.5-12.5s-5.5964406-12.5-12.5-12.5-12.5 5.5964406-12.5 12.5 5.5964406 12.5 12.5 12.5z" transform="matrix(0 1 -1 0 94 -18)"/><path d="m71.5191245 107.91581-30.1741554-52.2631698c-2.1860131 1.1785255-4.6873838 1.8473598-7.3449691 1.8473598-8.5604136 0-15.5-6.9395864-15.5-15.5s6.9395864-15.5 15.5-15.5 15.5 6.9395864 15.5 15.5c0 4.4571294-1.8812849 8.4748612-4.8931109 11.3024515l30.8349268 53.4076595c.8321932-.138204 1.6867912-.210111 2.5581841-.210111 8.5604136 0 15.5 6.939586 15.5 15.5s-6.9395864 15.5-15.5 15.5-15.5-6.939586-15.5-15.5c0-6.246715 3.6952806-11.63035 9.0191245-14.08419zm-37.5191245-53.41581c6.9035594 0 12.5-5.5964406 12.5-12.5s-5.5964406-12.5-12.5-12.5-12.5 5.5964406-12.5 12.5 5.5964406 12.5 12.5 12.5zm44 80c6.9035594 0 12.5-5.596441 12.5-12.5s-5.5964406-12.5-12.5-12.5-12.5 5.596441-12.5 12.5 5.5964406 12.5 12.5 12.5z" transform="matrix(0 -1 -1 0 138 138)"/></g></svg>

<?xml version="1.0" encoding="UTF-8"?>
<svg width="112px" height="120px" viewBox="0 0 112 120" version="1.1" xmlns="http://www.w3.org/2000/svg" xmlns:xlink="http://www.w3.org/1999/xlink">
    <!-- Generator: Sketch 46.2 (44496) - http://www.bohemiancoding.com/sketch -->
    <title>shere</title>
    <desc>Created with Sketch.</desc>
    <defs>
        <linearGradient x1="0%" y1="0%" x2="149.460671%" y2="71.875%" id="linearGradient-1">
            <stop stop-color="#00EAF8" offset="0%"></stop>
            <stop stop-color="#6D42EF" offset="100%"></stop>
        </linearGradient>
    </defs>
    <g id="Page-1" stroke="none" stroke-width="1" fill="none" fill-rule="evenodd">
        <g id="Home-Page-10/04/2017-screen-Shere-Rakam" transform="translate(-730.000000, -1079.000000)" fill="url(#linearGradient-1)">
            <g id="How-Rakam-Works" transform="translate(160.000000, 757.000000)">
                <g id="create-a-project" transform="translate(39.000000, 113.000000)">
                    <g id="shere" transform="translate(531.000000, 209.000000)">
                        <g id="Group-5">
                            <path d="M71.5191245,63.9158105 L41.3449691,11.6526402 C39.158956,12.8311657 36.6575853,13.5 34,13.5 C25.4395864,13.5 18.5,6.56041362 18.5,-2 C18.5,-10.5604136 25.4395864,-17.5 34,-17.5 C42.5604136,-17.5 49.5,-10.5604136 49.5,-2 C49.5,2.45712942 47.6187151,6.47486121 44.6068891,9.30245145 L75.4418159,62.7101114 C76.2740091,62.5719072 77.1286071,62.5 78,62.5 C86.5604136,62.5 93.5,69.4395864 93.5,78 C93.5,86.5604136 86.5604136,93.5 78,93.5 C69.4395864,93.5 62.5,86.5604136 62.5,78 C62.5,71.7532854 66.1952806,66.3696497 71.5191245,63.9158105 Z M34,10.5 C40.9035594,10.5 46.5,4.90355937 46.5,-2 C46.5,-8.90355937 40.9035594,-14.5 34,-14.5 C27.0964406,-14.5 21.5,-8.90355937 21.5,-2 C21.5,4.90355937 27.0964406,10.5 34,10.5 Z M78,90.5 C84.9035594,90.5 90.5,84.9035594 90.5,78 C90.5,71.0964406 84.9035594,65.5 78,65.5 C71.0964406,65.5 65.5,71.0964406 65.5,78 C65.5,84.9035594 71.0964406,90.5 78,90.5 Z" id="Combined-Shape" transform="translate(56.000000, 38.000000) rotate(-270.000000) translate(-56.000000, -38.000000) "></path>
                            <path d="M71.5191245,107.91581 L41.3449691,55.6526402 C39.158956,56.8311657 36.6575853,57.5 34,57.5 C25.4395864,57.5 18.5,50.5604136 18.5,42 C18.5,33.4395864 25.4395864,26.5 34,26.5 C42.5604136,26.5 49.5,33.4395864 49.5,42 C49.5,46.4571294 47.6187151,50.4748612 44.6068891,53.3024515 L75.4418159,106.710111 C76.2740091,106.571907 77.1286071,106.5 78,106.5 C86.5604136,106.5 93.5,113.439586 93.5,122 C93.5,130.560414 86.5604136,137.5 78,137.5 C69.4395864,137.5 62.5,130.560414 62.5,122 C62.5,115.753285 66.1952806,110.36965 71.5191245,107.91581 Z M34,54.5 C40.9035594,54.5 46.5,48.9035594 46.5,42 C46.5,35.0964406 40.9035594,29.5 34,29.5 C27.0964406,29.5 21.5,35.0964406 21.5,42 C21.5,48.9035594 27.0964406,54.5 34,54.5 Z M78,134.5 C84.9035594,134.5 90.5,128.903559 90.5,122 C90.5,115.096441 84.9035594,109.5 78,109.5 C71.0964406,109.5 65.5,115.096441 65.5,122 C65.5,128.903559 71.0964406,134.5 78,134.5 Z" id="Combined-Shape" transform="translate(56.000000, 82.000000) scale(1, -1) rotate(-270.000000) translate(-56.000000, -82.000000) "></path>
                        </g>
                    </g>
                </g>
            </g>
        </g>
    </g>
</svg>
